X:1
T:The Master’s Call
T:William Fiske Sherwin
T:The Master’s Call
T:Public Domain
T:Public Domain
C:William Fiske Sherwin
Z:Public Domain
%%score ( 1 2 ) ( 3 4 )
L:1/8
M:3/4
K:Eb
V:1 treble 
V:2 treble 
V:3 bass 
V:4 bass 
V:1
 [EB]2 | [EG]2 [B,E]2 [B,F]2 | [B,E]4 [EB]2 | [EG]2 [B,E]2 [B,F]2 | [B,E]4 [EB]2 | %5
w: 1.~The|Mas- ter is|come, and|call- eth for|thee, He|
w: 2.~The|Mas- ter has|come, with|bless- ings for|thee, A-|
w: 3.~The|Mas- ter has|come, and|call- eth thee|now, This|
w: 4.~He|waits for thee|still, then|haste with de-|light, Oh,|
 [Ec]2 [EB]2 [EG]2 | [EA]2 [EG]2 E2 | [DF]4 [FB]2 | [EG]2 E2 [DF]2 | [CE]2 [CE]2 [DF]2 | %10
w: stands at the|door of thy|No friend|so for- giv-|so gen- tle|
w: rise, and His|mes- sage re-|Thy ran-|som is pur-|thy par- don|
w: mo- ment what|joy may be|How ten-|der that smile|il- lum- ines|
w: fly to the|arms of His|Press on|to that beau-|ful man- sion|
 [EG]2 [EA]2 [Ec]2 | [EB]4 [Fd]2 | [Ee]2 [GB]2 [FA]2 | [EG]2 [B,E]2 [B,F]2 | [B,E]6 || %15
w: as He, Oh,|say, wilt|thou let Him|de- part? *||
w: is free, If|thou wilt|re- pent and|be- lieve. Pa-|tient-|
w: His brow, A|pledge of|His fa- vor|di- vine. *||
w: of light, Pre-|pared in|His king- dom|a- bove. *||
"^Refrain" [GB]3 [Ac] [GB]2 | (G3 A) [GB]2 | [EB]3 [Ec] [EB]2 | (G3 A) [EG]2 | %19
w: ||||
w: ly wait- ing,|ear- * nest-|plead- ing, Je-|sus, * thy|
w: ||||
w: ||||
 [B,E]2 [B,D]2 [B,E]2 | (B3 A) [EG]2 | [DF]2 [DB]2 [Ec]2 | [DB]6 | [DF]3 [EG] [DF]2 | %24
w: |||||
w: ior, knocks at|thy * heart,|tient- ly wait-|ing,|ear- nest- ly|
w: |||||
w: |||||
 ([FA]3 [GB]) [FA]2 | [EG]3 [FA] [EG]2 | [EB]4 [EB]2 | [Ec]2 [Ad]2 [Ge]2 | (B3 A) [EG]2 | %29
w: |||||
w: plead- * ing,|Je- sus, thy|Sav- ior,|knocks at thy|heart. * *|
w: |||||
w: |||||
 [DF]2 [EG]2 [B,F]2 | [B,E]4 |] %31
w: ||
w: ||
w: ||
w: ||
V:2
 x2 | x6 | x6 | x6 | x6 | x6 | x4 E2 | x6 | x2 E2 x2 | x6 | x6 | x6 | x6 | x6 | x6 || x6 | E4 x2 | %17
w: ||||||heart,||ing,|||||||||
w: ||||||ceive;||chased,||||||||ly|
w: ||||||thine;||that|||||||||
w: ||||||love;||ti-|||||||||
 x6 | E4 x2 | x6 | F4 x2 | x6 | x6 | x6 | x6 | x6 | x6 | x6 | F4 x2 | x6 | x4 |] %31
w: ||||||||||||||
w: |Sav-||Pa-|||||||||||
w: ||||||||||||||
w: ||||||||||||||
V:3
 [E,G,]2 | [E,B,]2 [E,G,]2 [B,,A,]2 | [E,G,]4 [E,G,]2 | [E,B,]2 [E,G,]2 [B,,A,]2 | %4
w: ~|~ ~ ~|~ ~|~ ~ ~|
 [E,G,]4 [E,G,]2 | [E,A,]2 [E,G,]2 [E,B,]2 | [E,C]2 [E,B,]2 [G,,B,]2 | [B,,B,]4 [D,B,]2 | %8
w: ~ ~|~ ~ ~|~ ~ ~|~ ~|
 [E,B,]2 [E,G,]2 [B,,A,]2 | [C,G,]2 [C,G,]2 [B,,B,]2 | [E,B,]2 [C,A,]2 [A,,A,]2 | [E,G,]4 [A,B,]2 | %12
w: ~ ~ ~|~ ~ ~|~ ~ ~|~ ~|
 [G,B,]2 [E,B,]2 [A,,C]2 | [B,,B,]2 [B,,G,]2 [B,,A,]2 | [E,G,]6 || z6 | [E,B,]3 [E,C] [E,B,]2 | %17
w: ~ ~ ~|~ ~ ~|~||Pa- tient- ly|
 (G,3 A,) [E,G,]2 | (B,3 C) [E,B,]2 | G,2 [F,A,]2 [E,G,]2 | [D,B,]4 [E,B,]2 | [F,B,]2 F,2 F,2 | %22
w: wait- * ing,|ing, * ~|~ ~ ~|~ ~|~ wait- ing,|
 [B,,F,]6 | z6 | [B,,B,]4 [B,,B,]2 | [E,B,]6 | [E,G,]6 | A,2 [F,B,]2 [E,B,]2 | [D,B,]4 [E,B,]2 | %29
w: |||||||
 [B,,A,]2 [B,,B,]2 [B,,A,]2 | [E,G,]4 |] %31
w: ||
V:4
 x2 | x6 | x6 | x6 | x6 | x6 | x6 | x6 | x6 | x6 | x6 | x6 | x6 | x6 | x6 || x6 | x6 | E,4 x2 | %18
w: |||||||||||||||||plead-|
 E,4 x2 | G,2 x4 | x6 | x2 F,2 F,2 | x6 | x6 | x6 | x6 | x6 | A,2 x4 | x6 | x6 | x4 |] %31
w: ~|~||plead- ing,||||||||||

